X: 121
M: C
L: 1/8
K: G
|:\
g2(bg) agfd | (ed).e.f (gd).B.G | g2(bg) agfd | (ed).e.f g2(ga) |
(ba).g.f (gf).e.d | edef gd BG  | (cB).c.d (ef).g.e | dgBg AGFA |]


